!!!COM:	Tinctoris, Johannes
!!!CDT:	~1435///-1511//
!!!OTL:	Le souvenir i
!!!AGN:	Song; Chanson
!!!SCT:	Tin3006
!!!SCA:	Tin3006
!!!voices:	2
**kern	**kern
*staff2	*staff1
*Ivox	*Ivox
*I"Tenor	*I"Superius
*I'T	*I'S
*clefF4	*clefG2
*k[b-]	*k[b-]
*M3/1	*M3/1
*met(O2)	*met(O2)
*rscale:1/2	*
=1-	=1-
!LO:N:vis=0	!
[y0.F	1.f
.	2c/
.	2f/
.	4e/
.	4f/
=2-	=2-
1F]yy	4g/
.	4f/
.	4e/
.	4d/
1A	2c/
.	2.d/
1B-	.
.	4c/
.	4d/
.	4f/
=3	=3
0c	2.e/
.	4f/
.	4e/
.	4d/
.	4c/
.	4B-/
!LO:N:vis=1	!
[y1A	1c
=4-	=4-
1A]yy	2r
.	2c/
1r	1f
1c	4g/
.	4a/
.	4b-\
.	4cc\
=5	=5
1F	2a/
.	4g/
.	4f/
1E	2.g/
.	4f/
!LO:N:vis=1	!
[y1A	4e/
.	4d/
.	[y2c/
=6-	=6-
1A]yy	4c/]yy
.	4d/
.	4e/
.	4f/
0G	2g/
.	1f
.	2e/
=7	=7
0F	2f/
.	4e/
.	4d/
.	4e/
.	4d/
.	4c/
.	4B-/
1r	4c/
.	4B-/
.	4A/
.	4G/
=8-	=8-
1c	1.A
0A	.
.	2.c/
.	4B-/
.	4A/
.	4G/
=9	=9
1r	2A/
.	2.F/
1c	.
.	4G/
.	4A/
.	4B-/
1B-	1G
=10-	=10-
2A\	1E
2G\	.
0A	2r
.	2.F/
.	4G/
.	[2A/
=11	=11
0F	4A/]
.	4G/
.	4A/
.	4B-/
.	1.c
1r	.
.	[y2d/
=12-	=12-
1F	4d/]yy
.	4e/
.	4f/
.	4g/
1G	2e/
.	4d/
.	4e/
1A	2.f/
.	4e/
=13	=13
0F	4d/
.	4c/
.	2.d/
.	4c/
.	4B-/
.	4A/
1G	4B-/
.	4A/
.	4G/
.	4F/
=14-	=14-
1E	4G/
.	4A/
.	4B-/
.	4c/
0D	2d/
.	2.c/
.	4Bni/
.	4Bni/
.	4A/
=15	=15
*	*M3/1
*	*met(3)
!LO:N:vis=0.	!
[y0C	3%2.c
.	3%2.r
=16-	=16-
0.C]yy	3%2.ryy
.	3%2.e
.	3d/
.	3c/
.	3d/
=17	=17
1r	3%2.e
1r	3d/
.	3e/
.	3f/
!LO:N:vis=1	!
[y1c	3%2.g
=18-	=18-
1c]yy	3a/
.	3b-\
.	3cc\
0F	3%2.a
.	3g/
.	3a/
.	3b-\
=19	=19
1A	3%2cc
.	3b-\
1B-	3a/
.	3g/
.	3f/
*	*M3/1
*	*met(4/3)
*	*rscale:2
!LO:N:vis=1	!
[y1c	1e
=20-	=20-
2c\]yy	1f
2A\	.
1B-	1g
1c	1a
=21	=21
*	*M3/1
*	*met(6/4)
0.d	3.f/
.	6g/
.	3a/
.	3.b-\
.	6g/
.	3b-\
.	3.a/
.	6g/
.	3f/
=22-	=22-
1c	3e/
.	3g/
.	3a/
0B-	2b-\
.	6a/
.	3g/
.	3f/
.	3%2g
=23	=23
*	*M(12/6)
*	*met(12/6)
*	*rscale:4
0A	3a/
.	3g/
.	3f/
.	3e/
.	3f/
.	3d/
1r	3%2e
.	3r
=24-	=24-
1c	3e/
.	3f/
.	3g/
0F	9%2a/
.	9%2b-\
.	9%2dd\
.	9%2cc\
.	9%2dd\
.	9%2ee\
.	9%2ff\
.	9%2ee\
.	9%2dd\
=25	=25
1A	9%2cc\
.	9%2b-\
.	9%2a/
.	9%2g/
.	9%2f/
1B-	.
.	9%2e/
.	9%2d/
.	9%2c/
.	9%2B-/
!!LO:TX:Z=12:t=in mensuration 14/18
*	*M3/1
*	*met(14/18)
!LO:N:vis=1	!
[y1c	7%2A/
.	7%2B-/
.	7%2c/
.	[y7d/
=26-	=26-
1c]yy	7d/]yy
.	7%2e/
.	7%2f/
.	7%2g/
0Bn	7%4g
.	7%2e/
.	7%2c/
.	7%4.d
=27	=27
*	*M3/1
*	*met(O2)
*	*rscale:1
0c	1c
.	2r
.	2.c/
1r	.
.	4d/
.	[2e/
=28-	=28-
1A	4e/]
.	4d/
.	4e/
.	4f/
1B-	1g
1A	2c/
.	[2f/
=29	=29
0F	4f/]
.	4g/
.	4a/
.	4b-\
.	2cc\
.	4b-\
.	4a/
[y1B-	2g/
.	[2f/
=30-	=30-
1B-]yy	2f/]
.	1b-
1G	.
.	4a/
.	4g/
[1F	2a/
.	[2cc\
=31	=31
1F]	4cc\]
.	4b-\
.	2.a/
1A	.
.	4g/
.	4f/
.	4e/
1B-	2d/
.	[2g/
=32-	=32-
1G	2g/]
.	1a
0A	.
.	1g
.	2f/
=33	=33
0G	2g/
.	2.b-\
.	4g/
.	2.b-\
[y1d	.
.	4a/
.	[2f/
=34-	=34-
1d]yy	4f/]
.	4g/
.	2.a/
0c	.
.	4g/
.	2.a/
.	4g/
.	[2e/
=35	=35
0B-	4e/]
.	4f/
.	2.g/
.	4f/
.	4e/
.	4d/
1c	4c/
.	4B-/
.	4A/
.	4G/
=36-	=36-
1A	2F/
.	2f/
0G	4g/
.	4f/
.	4e/
.	4d/
.	2e/
.	4d/
.	4e/
=37	=37
0.Fl	0.fl
*rscale:1	*rscale:1
==	==
*-	*-
!!!RDF**kern: l=long note in original notation
!!!RDF**kern: i=editorial accidental
!!!ENC:	Chris Gage 01-29-2015
!!!END:	2015/02/22/
!!!EED:	Jesse Rodin
!!!EEV:	2015/03/09/
!!!ONB:	Translated from MusicXML and edited on 2015/03/09/ by Craig Sapp
!!muse2ps: C^@{COM}^i2I150v85,150Q16
